X:191
T:Polska efter Pelle Ror
T:(SvL Småland 191)
R:Polska
S:Pelle Ror
S:Vilhelm Andersson
O:Torsås, Småland
B:Svenska Låtar Småland
M:3/4
L:1/8
K:G
GB dg fe|dc B2 GB|dc AD FA|cB G2 B2|
GB dg fe|dc B2 GB|dc AD FA|cB G2 G2:|
|:g>e c2 c2|e>d B2 B2|dc AD FA|cB G2 B2|
g>e c2 c2|e>d B2 B2|dc A2 ff|(fg) g4:|

